icons/op-calendar-alert-16.svg

<svg width="16" height="16" viewBox="0 0 16 16" fill="none" xmlns="http://www.w3.org/2000/svg">
<g clip-path="url(#clip0_35_1803)">
<path fill-rule="evenodd" clip-rule="evenodd" d="M3.75 2C4.16421 2 4.5 2.33579 4.5 2.75V4H7.5V2.75C7.5 2.33579 7.83579 2 8.25 2C8.66421 2 9 2.33579 9 2.75V4H10.25C11.2165 4 12 4.7835 12 5.75V14.25C12 15.2165 11.2165 16 10.25 16H1.75C0.783501 16 0 15.2165 0 14.25V5.75C0 4.7835 0.783502 4 1.75 4H3V2.75C3 2.33579 3.33579 2 3.75 2ZM10.25 5.5C10.3881 5.5 10.5 5.61193 10.5 5.75V8H1.5V5.75C1.5 5.61193 1.61193 5.5 1.75 5.5H10.25ZM1.5 9.5V14.25C1.5 14.3881 1.61193 14.5 1.75 14.5H10.25C10.3881 14.5 10.5 14.3881 10.5 14.25V9.5H1.5Z" fill="#24292F"/>
<path fill-rule="evenodd" clip-rule="evenodd" d="M16 6C16 6.5523 15.5523 7 15 7C14.4478 7 14 6.5523 14 6C14 5.4477 14.4478 5 15 5C15.5523 5 16 5.4477 16 6ZM15.75 0.75C15.75 0.33579 15.4142 0 15 0C14.5858 0 14.25 0.33579 14.25 0.75V3.25C14.25 3.66421 14.5858 4 15 4C15.4142 4 15.75 3.66421 15.75 3.25V0.75Z" fill="#1F2328"/>
</g>
<defs>
<clipPath id="clip0_35_1803">
<rect width="16" height="16" fill="white"/>
</clipPath>
</defs>
</svg>

<svg xmlns="http://www.w3.org/2000/svg" width="16" height="16" viewBox="0 0 16 16"><path d="M3.75 2a.75.75 0 0 1 .75.75V4h3V2.75a.75.75 0 0 1 1.5 0V4h1.25c.967 0 1.75.784 1.75 1.75v8.5A1.75 1.75 0 0 1 10.25 16h-8.5A1.75 1.75 0 0 1 0 14.25v-8.5C0 4.784.784 4 1.75 4H3V2.75A.75.75 0 0 1 3.75 2ZM1.5 9.5v4.75c0 .138.112.25.25.25h8.5a.25.25 0 0 0 .25-.25V9.5Zm8.75-4h-8.5a.25.25 0 0 0-.25.25V8h9V5.75a.25.25 0 0 0-.25-.25Zm5.5-4.75v2.5a.75.75 0 0 1-1.5 0V.75a.75.75 0 0 1 1.5 0ZM16 6a1 1 0 1 1-2 0 1 1 0 0 1 2 0Z"/></svg>
